; generated by PrusaSlicer 2.5.2+win64 on 2023-07-14 at 14:56:59 UTC


;
;

;
;
; 

; external perimeters extrusion width = 0.45mm
; perimeters extrusion width = 0.45mm
; infill extrusion width = 0.45mm
; solid infill extrusion width = 0.45mm
; top infill extrusion width = 0.40mm
; first layer extrusion width = 0.42mm

; external perimeters extrusion width = 0.45mm
; perimeters extrusion width = 0.45mm
; infill extrusion width = 0.45mm
; solid infill extrusion width = 0.45mm
; top infill extrusion width = 0.40mm
; first layer extrusion width = 0.42mm

M73 P0 R40
M107
;TYPE:Custom
G90 ; use absolute coordinates
M83 ; extruder relative mode
M104 S170 ; set extruder temp for bed leveling
M140 S60 ; set bed temp
M109 R170 ; wait for bed leveling temp
M190 S60 ; wait for bed temp
G28 ; home all without mesh bed level
G29 ; mesh bed leveling 
M104 S215 ; set extruder temp
G92 E0.0
G1 Y-2.0 X179 F2400
G1 Z3 F720
M109 S215 ; wait for extruder temp

; intro line
G1 X170 F1000
G1 Z0.2 F720
G1 X110.0 E8.0 F900
G1 X40.0 E10.0 F700
G92 E0.0

M221 S95 ; set flow
G21 ; set units to millimeters
G90 ; use absolute coordinates
M83 ; use relative distances for extrusion
M900 K0.2 ; Filament gcode LA 1.5
; ; Filament gcode LA 1.0
M107
;LAYER_CHANGE
;Z:0.2
;HEIGHT:0.2
;BEFORE_LAYER_CHANGE
G92 E0.0
;0.2


G1 E-3.2 F4200
G1 Z.2 F9000
;AFTER_LAYER_CHANGE
;0.2
G1 Z.4
G1 X73.015 Y58.693
G1 Z.2
G1 E3.2 F2400
M204 S800
;TYPE:Skirt/Brim
;WIDTH:0.42
G1 F1200
G1 X74.06 Y57.817 E.04278
G1 X75 Y57.623 E.03008
G1 X105 Y57.623 E.94063
G1 X106.307 Y58.015 E.04278
G1 X107.183 Y59.06 E.04278
G1 X107.377 Y60 E.03008
G1 X107.377 Y120 E1.88126
G1 X106.985 Y121.307 E.04278
G1 X105.94 Y122.183 E.04278
G1 X105 Y122.377 E.03008
G1 X75 Y122.377 E.94063
G1 X73.693 Y121.985 E.04278
G1 X72.817 Y120.94 E.04278
G1 X72.623 Y120 E.03008
G1 X72.623 Y60 E1.88126
G1 X72.997 Y58.75 E.0409
M204 S1250
; printing object Amazing Bigery (1).stl id:1 copy 0
M73 P1 R40
G1 E-2.24 F4200
;WIPE_START
G1 F7200
G1 X74.06 Y57.817 E-.78411
G1 X74.286 Y57.77 E-.12789
;WIPE_END
G1 E-.048 F4200
G1 Z.4 F9000
G1 X93.787 Y60.787
G1 Z.2
G1 E3.2 F2400
M204 S800
;TYPE:Perimeter
;WIDTH:0.419999
G1 F1200
G1 X104.213 Y60.787 E.32689
G1 X104.213 Y119.213 E1.8319
G1 X93.787 Y119.213 E.32689
G1 X93.787 Y60.847 E1.83002
M204 S1250
G1 X93.41 Y60.41 F9000
M204 S800
;TYPE:External perimeter
G1 F1200
G1 X104.59 Y60.41 E.35054
G1 X104.59 Y119.59 E1.85554
G1 X93.41 Y119.59 E.35054
G1 X93.41 Y60.47 E1.85366
M204 S1250
G1 X93.768 Y60.588 F9000
M73 P1 R39
G1 E-2.24 F4200
;WIPE_START
G1 F7200
G1 X95.056 Y60.461 E-.912
;WIPE_END
G1 E-.048 F4200
G1 Z.4 F9000
G1 X97.161 Y68.427
G1 Z.2
G1 E3.2 F2400
M204 S800
;TYPE:Perimeter
G1 F1200
G1 X97.585 Y67.969 E.0196
G1 X98.21 Y67.62 E.02245
G1 X98.911 Y67.48 E.0224
G1 X99.622 Y67.565 E.02247
G1 X100.271 Y67.864 E.0224
G1 X100.797 Y68.351 E.02248
G1 X101.146 Y68.976 E.02245
G1 X101.286 Y69.677 E.0224
G1 X101.201 Y70.388 E.02247
G1 X100.902 Y71.037 E.0224
G1 X100.414 Y71.563 E.02248
G1 X99.791 Y71.912 E.0224
G1 X99.088 Y72.051 E.02246
G1 X98.379 Y71.967 E.02239
G1 X97.728 Y71.666 E.02248
G1 X97.203 Y71.181 E.0224
G1 X96.854 Y70.556 E.02248
G1 X96.714 Y69.855 E.0224
G1 X96.799 Y69.144 E.02247
G1 X97.12 Y68.472 E.02335
M204 S1250
G1 X97.434 Y68.666 F9000
M204 S800
;TYPE:External perimeter
G1 F1200
G1 X97.852 Y68.235 E.01881
G1 X98.381 Y67.956 E.01877
G1 X98.97 Y67.853 E.01875
G1 X99.563 Y67.938 E.01877
G1 X100.1 Y68.2 E.01875
G1 X100.531 Y68.618 E.01881
G1 X100.81 Y69.147 E.01877
G1 X100.913 Y69.736 E.01875
G1 X100.828 Y70.329 E.01877
G1 X100.565 Y70.866 E.01876
G1 X100.148 Y71.296 E.01879
G1 X99.619 Y71.576 E.01876
G1 X99.029 Y71.678 E.01877
G1 X98.437 Y71.595 E.01874
G1 X97.9 Y71.33 E.01879
G1 X97.469 Y70.914 E.01876
G1 X97.19 Y70.385 E.01878
G1 X97.087 Y69.796 E.01875
G1 X97.172 Y69.203 E.01877
G1 X97.408 Y68.72 E.01687
M204 S1250
G1 X97.266 Y68.303 F9000
G1 E-2.24 F4200
;WIPE_START
G1 F7200
G1 X97.852 Y68.235 E-.36415
G1 X98.381 Y67.956 E-.33171
G1 X98.765 Y67.888 E-.21615
;WIPE_END
G1 E-.048 F4200
G1 Z.4 F9000
G1 X104.1 Y61.665
G1 Z.2
G1 E3.2 F2400
M204 S800
;TYPE:Solid infill
;WIDTH:0.421192
G1 F1200
G1 X103.505 Y61.07 E.02647
G1 X102.97 Y61.07 E.01683
G1 X103.93 Y62.03 E.04272
G1 X103.93 Y62.565 E.01683
G1 X102.435 Y61.07 E.06652
G1 X101.9 Y61.07 E.01683
G1 X103.93 Y63.1 E.09031
G1 X103.93 Y63.635 E.01683
G1 X101.365 Y61.07 E.11411
G1 X100.83 Y61.07 E.01683
G1 X103.93 Y64.17 E.1379
G1 X103.93 Y64.705 E.01683
G1 X100.295 Y61.07 E.1617
G1 X99.76 Y61.07 E.01683
G1 X103.93 Y65.24 E.1855
G1 X103.93 Y65.775 E.01683
G1 X99.225 Y61.07 E.20929
G1 X98.69 Y61.07 E.01683
G1 X103.93 Y66.31 E.23309
G1 X103.93 Y66.845 E.01683
G1 X98.155 Y61.07 E.25688
G1 X97.62 Y61.07 E.01683
G1 X103.93 Y67.38 E.28068
G1 X103.93 Y67.915 E.01683
G1 X97.085 Y61.07 E.30447
G1 X96.55 Y61.07 E.01683
G1 X103.93 Y68.45 E.32827
G1 X103.93 Y68.985 E.01683
G1 X96.015 Y61.07 E.35207
G1 X95.48 Y61.07 E.01683
G1 X103.93 Y69.52 E.37586
G1 X103.93 Y70.055 E.01683
G1 X94.945 Y61.07 E.39966
G1 X94.41 Y61.07 E.01683
M73 P2 R39
G1 X103.93 Y70.59 E.42345
G1 X103.93 Y71.125 E.01683
G1 X94.07 Y61.264 E.4386
G1 X94.07 Y61.799 E.01683
G1 X99.538 Y67.267 E.24323
G1 X98.999 Y67.189 E.01711
G1 X98.935 Y67.199 E.00205
G1 X94.07 Y62.334 E.21641
G1 X94.07 Y62.869 E.01683
G1 X98.473 Y67.272 E.19585
G1 X98.214 Y67.313 E.00825
G1 X98.056 Y67.39 E.00553
G1 X94.07 Y63.404 E.1773
G1 X94.07 Y63.939 E.01683
G1 X97.696 Y67.566 E.16131
G1 X97.595 Y67.615 E.00355
G1 X97.375 Y67.779 E.00863
G1 X94.07 Y64.474 E.14701
G1 X94.07 Y65.009 E.01683
G1 X97.107 Y68.047 E.13512
G1 X96.997 Y68.157 E.0049
G1 X96.865 Y68.339 E.00709
G1 X94.07 Y65.544 E.12433
G1 X94.07 Y66.079 E.01683
G1 X96.682 Y68.691 E.11617
G1 X96.598 Y68.855 E.00579
G1 X96.528 Y69.072 E.00717
G1 X94.07 Y66.614 E.10933
G1 X94.07 Y67.149 E.01683
G1 X96.457 Y69.536 E.10617
G1 X96.423 Y69.766 E.00732
G1 X96.469 Y70.083 E.01009
G1 X93.9 Y67.514 E.11428
M204 S1250
G1 E-2.24 F4200
;WIPE_START
G1 F7200
G1 X95.064 Y68.678 E-.912
;WIPE_END
G1 E-.048 F4200
G1 Z.4 F9000
G1 X101.271 Y69
G1 Z.2
G1 E3.2 F2400
M204 S800
G1 F1200
G1 X103.93 Y71.659 E.1183
G1 X103.93 Y72.194 E.01683
G1 X101.567 Y69.831 E.10511
G1 X101.499 Y70.299 E.01485
G1 X103.93 Y72.729 E.10813
G1 X103.93 Y73.264 E.01683
G1 X101.382 Y70.716 E.11335
G1 X101.202 Y71.071 E.01251
G1 X103.93 Y73.799 E.12137
G1 X103.93 Y74.334 E.01683
G1 X100.987 Y71.391 E.13092
G1 X100.719 Y71.658 E.0119
G1 X103.93 Y74.869 E.14283
G1 X103.93 Y75.404 E.01683
G1 X100.427 Y71.901 E.15585
G1 X100.075 Y72.084 E.01247
G1 X103.93 Y75.939 E.17148
G1 X103.93 Y76.474 E.01683
G1 X99.694 Y72.238 E.18842
G1 X99.23 Y72.309 E.01478
G1 X103.93 Y77.009 E.20908
G1 X103.93 Y77.544 E.01683
G1 X98.482 Y72.096 E.24234
M204 S1250
G1 E-2.24 F4200
;WIPE_START
G1 F7200
G1 X99.646 Y73.26 E-.912
;WIPE_END
G1 E-.048 F4200
G1 Z.4 F9000
G1 X93.9 Y68.049
G1 Z.2
G1 E3.2 F2400
M204 S800
G1 F1200
G1 X103.93 Y78.079 E.44615
G1 X103.93 Y78.614 E.01683
G1 X94.07 Y68.754 E.4386
G1 X94.07 Y69.289 E.01683
G1 X103.93 Y79.149 E.4386
G1 X103.93 Y79.684 E.01683
G1 X94.07 Y69.824 E.4386
G1 X94.07 Y70.359 E.01683
G1 X103.93 Y80.219 E.4386
G1 X103.93 Y80.754 E.01683
G1 X94.07 Y70.894 E.4386
G1 X94.07 Y71.428 E.01683
G1 X103.93 Y81.289 E.4386
G1 X103.93 Y81.824 E.01683
G1 X94.07 Y71.963 E.4386
G1 X94.07 Y72.498 E.01683
G1 X103.93 Y82.359 E.4386
G1 X103.93 Y82.894 E.01683
G1 X94.07 Y73.033 E.4386
G1 X94.07 Y73.568 E.01683
G1 X103.93 Y83.429 E.4386
G1 X103.93 Y83.964 E.01683
G1 X94.07 Y74.103 E.4386
G1 X94.07 Y74.638 E.01683
G1 X103.93 Y84.498 E.4386
G1 X103.93 Y85.033 E.01683
G1 X94.07 Y75.173 E.4386
G1 X94.07 Y75.708 E.01683
G1 X103.93 Y85.568 E.4386
G1 X103.93 Y86.103 E.01683
G1 X94.07 Y76.243 E.4386
G1 X94.07 Y76.778 E.01683
G1 X103.93 Y86.638 E.4386
G1 X103.93 Y87.173 E.01683
G1 X94.07 Y77.313 E.4386
G1 X94.07 Y77.848 E.01683
G1 X103.93 Y87.708 E.4386
G1 X103.93 Y88.243 E.01683
G1 X94.07 Y78.383 E.4386
G1 X94.07 Y78.918 E.01683
G1 X103.93 Y88.778 E.4386
G1 X103.93 Y89.313 E.01683
M73 P3 R39
G1 X94.07 Y79.453 E.4386
G1 X94.07 Y79.988 E.01683
G1 X103.93 Y89.848 E.4386
G1 X103.93 Y90.383 E.01683
G1 X94.07 Y80.523 E.4386
G1 X94.07 Y81.058 E.01683
G1 X103.93 Y90.918 E.4386
G1 X103.93 Y91.453 E.01683
G1 X94.07 Y81.593 E.4386
G1 X94.07 Y82.128 E.01683
G1 X103.93 Y91.988 E.4386
G1 X103.93 Y92.523 E.01683
G1 X94.07 Y82.663 E.4386
G1 X94.07 Y83.198 E.01683
G1 X103.93 Y93.058 E.4386
G1 X103.93 Y93.593 E.01683
G1 X94.07 Y83.733 E.4386
G1 X94.07 Y84.267 E.01683
G1 X103.93 Y94.128 E.4386
G1 X103.93 Y94.663 E.01683
G1 X94.07 Y84.802 E.4386
G1 X94.07 Y85.337 E.01683
G1 X103.93 Y95.198 E.4386
G1 X103.93 Y95.733 E.01683
G1 X94.07 Y85.872 E.4386
G1 X94.07 Y86.407 E.01683
G1 X103.93 Y96.268 E.4386
G1 X103.93 Y96.802 E.01683
G1 X94.07 Y86.942 E.4386
G1 X94.07 Y87.477 E.01683
G1 X103.93 Y97.337 E.4386
G1 X103.93 Y97.872 E.01683
G1 X94.07 Y88.012 E.4386
G1 X94.07 Y88.547 E.01683
G1 X103.93 Y98.407 E.4386
G1 X103.93 Y98.942 E.01683
G1 X94.07 Y89.082 E.4386
G1 X94.07 Y89.617 E.01683
G1 X103.93 Y99.477 E.4386
G1 X103.93 Y100.012 E.01683
G1 X94.07 Y90.152 E.4386
G1 X94.07 Y90.687 E.01683
G1 X103.93 Y100.547 E.4386
G1 X103.93 Y101.082 E.01683
G1 X94.07 Y91.222 E.4386
G1 X94.07 Y91.757 E.01683
G1 X103.93 Y101.617 E.4386
G1 X103.93 Y102.152 E.01683
G1 X94.07 Y92.292 E.4386
G1 X94.07 Y92.827 E.01683
G1 X103.93 Y102.687 E.4386
G1 X103.93 Y103.222 E.01683
G1 X94.07 Y93.362 E.4386
G1 X94.07 Y93.897 E.01683
G1 X103.93 Y103.757 E.4386
G1 X103.93 Y104.292 E.01683
G1 X94.07 Y94.432 E.4386
G1 X94.07 Y94.967 E.01683
G1 X103.93 Y104.827 E.4386
G1 X103.93 Y105.362 E.01683
G1 X94.07 Y95.502 E.4386
G1 X94.07 Y96.037 E.01683
G1 X103.93 Y105.897 E.4386
G1 X103.93 Y106.432 E.01683
G1 X94.07 Y96.571 E.4386
G1 X94.07 Y97.106 E.01683
M73 P4 R39
G1 X103.93 Y106.967 E.4386
G1 X103.93 Y107.502 E.01683
G1 X94.07 Y97.641 E.4386
G1 X94.07 Y98.176 E.01683
G1 X103.93 Y108.037 E.4386
G1 X103.93 Y108.572 E.01683
M73 P4 R38
G1 X94.07 Y98.711 E.4386
G1 X94.07 Y99.246 E.01683
G1 X103.93 Y109.107 E.4386
G1 X103.93 Y109.641 E.01683
G1 X94.07 Y99.781 E.4386
G1 X94.07 Y100.316 E.01683
G1 X103.93 Y110.176 E.4386
G1 X103.93 Y110.711 E.01683
G1 X94.07 Y100.851 E.4386
G1 X94.07 Y101.386 E.01683
G1 X103.93 Y111.246 E.4386
G1 X103.93 Y111.781 E.01683
G1 X94.07 Y101.921 E.4386
G1 X94.07 Y102.456 E.01683
G1 X103.93 Y112.316 E.4386
G1 X103.93 Y112.851 E.01683
G1 X94.07 Y102.991 E.4386
G1 X94.07 Y103.526 E.01683
G1 X103.93 Y113.386 E.4386
G1 X103.93 Y113.921 E.01683
G1 X94.07 Y104.061 E.4386
G1 X94.07 Y104.596 E.01683
G1 X103.93 Y114.456 E.4386
G1 X103.93 Y114.991 E.01683
G1 X94.07 Y105.131 E.4386
G1 X94.07 Y105.666 E.01683
G1 X103.93 Y115.526 E.4386
G1 X103.93 Y116.061 E.01683
G1 X94.07 Y106.201 E.4386
G1 X94.07 Y106.736 E.01683
G1 X103.93 Y116.596 E.4386
G1 X103.93 Y117.131 E.01683
G1 X94.07 Y107.271 E.4386
G1 X94.07 Y107.806 E.01683
G1 X103.93 Y117.666 E.4386
G1 X103.93 Y118.201 E.01683
G1 X94.07 Y108.341 E.4386
G1 X94.07 Y108.875 E.01683
G1 X103.93 Y118.736 E.4386
G1 X103.93 Y118.93 E.00611
G1 X103.59 Y118.93 E.01071
G1 X94.07 Y109.41 E.42345
G1 X94.07 Y109.945 E.01683
G1 X103.055 Y118.93 E.39966
G1 X102.52 Y118.93 E.01683
G1 X94.07 Y110.48 E.37586
G1 X94.07 Y111.015 E.01683
G1 X101.985 Y118.93 E.35207
G1 X101.45 Y118.93 E.01683
G1 X94.07 Y111.55 E.32827
G1 X94.07 Y112.085 E.01683
G1 X100.915 Y118.93 E.30447
G1 X100.38 Y118.93 E.01683
G1 X94.07 Y112.62 E.28068
G1 X94.07 Y113.155 E.01683
G1 X99.845 Y118.93 E.25688
G1 X99.31 Y118.93 E.01683
G1 X94.07 Y113.69 E.23309
G1 X94.07 Y114.225 E.01683
G1 X98.775 Y118.93 E.20929
G1 X98.24 Y118.93 E.01683
G1 X94.07 Y114.76 E.18549
G1 X94.07 Y115.295 E.01683
G1 X97.705 Y118.93 E.1617
G1 X97.17 Y118.93 E.01683
G1 X94.07 Y115.83 E.1379
G1 X94.07 Y116.365 E.01683
G1 X96.635 Y118.93 E.11411
G1 X96.1 Y118.93 E.01683
G1 X94.07 Y116.9 E.09031
G1 X94.07 Y117.435 E.01683
G1 X95.565 Y118.93 E.06651
G1 X95.03 Y118.93 E.01683
G1 X94.07 Y117.97 E.04272
M73 P5 R38
G1 X94.07 Y118.505 E.01683
G1 X94.665 Y119.1 E.02647
M204 S1250
; stop printing object Amazing Bigery (1).stl id:1 copy 0
; printing object Amazing Bigery (1).stl id:0 copy 0
G1 E-2.24 F4200
;WIPE_START
G1 F7200
G1 X94.07 Y118.505 E-.46637
G1 X94.07 Y117.97 E-.29646
G1 X94.26 Y118.16 E-.14918
;WIPE_END
G1 E-.048 F4200
G1 Z.4 F9000
G1 X86.213 Y119.213
G1 Z.2
G1 E3.2 F2400
M204 S800
;TYPE:Perimeter
;WIDTH:0.419999
G1 F1200
G1 X75.787 Y119.213 E.32689
G1 X75.787 Y60.787 E1.8319
G1 X86.213 Y60.787 E.32689
G1 X86.213 Y119.153 E1.83002
M204 S1250
G1 X86.59 Y119.59 F9000
M204 S800
;TYPE:External perimeter
G1 F1200
G1 X75.41 Y119.59 E.35054
G1 X75.41 Y60.41 E1.85554
G1 X86.59 Y60.41 E.35054
G1 X86.59 Y119.53 E1.85366
M204 S1250
G1 X86.232 Y119.412 F9000
G1 E-2.24 F4200
;WIPE_START
G1 F7200
G1 X84.944 Y119.539 E-.912
;WIPE_END
G1 E-.048 F4200
G1 Z.4 F9000
G1 X79.158 Y71.101
G1 Z.2
G1 E3.2 F2400
M204 S800
;TYPE:Perimeter
G1 F1200
G1 X78.854 Y70.556 E.01958
G1 X78.714 Y69.855 E.0224
G1 X78.799 Y69.144 E.02247
G1 X79.098 Y68.495 E.0224
G1 X79.585 Y67.969 E.02248
G1 X80.21 Y67.62 E.02245
G1 X81 Y67.473 E.02518
G1 X81.622 Y67.565 E.01973
G1 X82.271 Y67.864 E.0224
G1 X82.797 Y68.351 E.02248
G1 X83.146 Y68.976 E.02245
G1 X83.286 Y69.677 E.0224
G1 X83.201 Y70.388 E.02247
G1 X82.902 Y71.037 E.0224
G1 X82.414 Y71.563 E.02248
G1 X81.791 Y71.912 E.0224
G1 X81.088 Y72.051 E.02246
G1 X80.379 Y71.967 E.02239
G1 X79.728 Y71.666 E.02248
G1 X79.188 Y71.153 E.02336
M204 S1250
G1 X79.469 Y70.914 F9000
M204 S800
;TYPE:External perimeter
G1 F1200
G1 X79.19 Y70.385 E.01878
G1 X79.087 Y69.796 E.01875
G1 X79.172 Y69.203 E.01877
G1 X79.434 Y68.666 E.01875
G1 X79.852 Y68.235 E.01881
G1 X80.381 Y67.956 E.01877
G1 X81 Y67.85 E.01968
G1 X81.563 Y67.938 E.01786
G1 X82.1 Y68.2 E.01875
G1 X82.531 Y68.618 E.01881
G1 X82.81 Y69.147 E.01877
G1 X82.913 Y69.736 E.01875
G1 X82.828 Y70.329 E.01877
G1 X82.565 Y70.866 E.01876
G1 X82.148 Y71.296 E.01879
G1 X81.619 Y71.576 E.01876
G1 X81.029 Y71.678 E.01877
G1 X80.437 Y71.595 E.01874
G1 X79.9 Y71.33 E.01879
G1 X79.513 Y70.956 E.01688
M204 S1250
G1 X79.072 Y70.962 F9000
G1 E-2.24 F4200
;WIPE_START
G1 F7200
G1 X79.19 Y70.385 E-.3637
G1 X79.087 Y69.796 E-.33139
G1 X79.142 Y69.408 E-.21691
;WIPE_END
G1 E-.048 F4200
G1 Z.4 F9000
G1 X86.1 Y61.665
G1 Z.2
G1 E3.2 F2400
M204 S800
;TYPE:Solid infill
;WIDTH:0.421192
G1 F1200
G1 X85.505 Y61.07 E.02647
G1 X84.97 Y61.07 E.01683
G1 X85.93 Y62.03 E.04272
G1 X85.93 Y62.565 E.01683
G1 X84.435 Y61.07 E.06652
G1 X83.9 Y61.07 E.01683
G1 X85.93 Y63.1 E.09031
G1 X85.93 Y63.635 E.01683
G1 X83.365 Y61.07 E.11411
G1 X82.83 Y61.07 E.01683
G1 X85.93 Y64.17 E.1379
G1 X85.93 Y64.705 E.01683
G1 X82.295 Y61.07 E.1617
G1 X81.76 Y61.07 E.01683
G1 X85.93 Y65.24 E.1855
G1 X85.93 Y65.775 E.01683
G1 X81.225 Y61.07 E.20929
G1 X80.69 Y61.07 E.01683
G1 X85.93 Y66.31 E.23309
G1 X85.93 Y66.845 E.01683
G1 X80.155 Y61.07 E.25688
G1 X79.62 Y61.07 E.01683
G1 X85.93 Y67.38 E.28068
G1 X85.93 Y67.915 E.01683
G1 X79.085 Y61.07 E.30447
G1 X78.55 Y61.07 E.01683
G1 X85.93 Y68.45 E.32827
G1 X85.93 Y68.985 E.01683
G1 X78.015 Y61.07 E.35207
G1 X77.48 Y61.07 E.01683
G1 X85.93 Y69.52 E.37586
G1 X85.93 Y70.055 E.01683
G1 X76.945 Y61.07 E.39966
G1 X76.41 Y61.07 E.01683
G1 X85.93 Y70.59 E.42345
G1 X85.93 Y71.125 E.01683
G1 X76.07 Y61.264 E.4386
G1 X76.07 Y61.799 E.01683
M73 P6 R38
G1 X81.538 Y67.267 E.24323
G1 X80.999 Y67.189 E.01711
G1 X80.935 Y67.199 E.00205
G1 X76.07 Y62.334 E.21641
G1 X76.07 Y62.869 E.01683
G1 X80.473 Y67.272 E.19585
G1 X80.214 Y67.313 E.00825
G1 X80.056 Y67.39 E.00553
G1 X76.07 Y63.404 E.1773
G1 X76.07 Y63.939 E.01683
G1 X79.696 Y67.566 E.16131
G1 X79.595 Y67.615 E.00355
G1 X79.375 Y67.779 E.00863
G1 X76.07 Y64.474 E.14701
G1 X76.07 Y65.009 E.01683
G1 X79.107 Y68.047 E.13512
G1 X78.997 Y68.157 E.0049
G1 X78.865 Y68.339 E.00709
G1 X76.07 Y65.544 E.12433
G1 X76.07 Y66.079 E.01683
G1 X78.682 Y68.691 E.11617
G1 X78.598 Y68.855 E.00579
G1 X78.528 Y69.072 E.00717
G1 X76.07 Y66.614 E.10933
G1 X76.07 Y67.149 E.01683
G1 X78.457 Y69.536 E.10617
G1 X78.423 Y69.766 E.00732
G1 X78.469 Y70.083 E.01009
G1 X75.9 Y67.514 E.11428
M204 S1250
G1 E-2.24 F4200
;WIPE_START
